gtk-icons/Papirus-GTK/22x22/actions/kstars_cnames.svg

<?xml version="1.0" encoding="UTF-8" standalone="no"?>
<!-- Created with Inkscape (http://www.inkscape.org/) -->

<svg
   xmlns:dc="http://purl.org/dc/elements/1.1/"
   xmlns:cc="http://creativecommons.org/ns#"
   xmlns:rdf="http://www.w3.org/1999/02/22-rdf-syntax-ns#"
   xmlns:svg="http://www.w3.org/2000/svg"
   xmlns="http://www.w3.org/2000/svg"
   xmlns:sodipodi="http://sodipodi.sourceforge.net/DTD/sodipodi-0.dtd"
   xmlns:inkscape="http://www.inkscape.org/namespaces/inkscape"
   width="22"
   height="22"
   id="svg2"
   version="1.1"
   inkscape:version="0.91 r13725"
   viewBox="0 0 22 22"
   sodipodi:docname="kstars_cnames.svg">
  <defs
     id="defs4">
    <style
       type="text/css"
       id="current-color-scheme">
      .ColorScheme-Text {
        color:#4d4d4d;
      }
      .ColorScheme-Background {
        color:#eff0f1;
      }
      .ColorScheme-Highlight {
        color:#3daee9;
      }
      .ColorScheme-ViewText {
        color:#31363b;
      }
      .ColorScheme-ViewBackground {
        color:#fcfcfc;
      }
      .ColorScheme-ViewHover {
        color:#93cee9;
      }
      .ColorScheme-ViewFocus{
        color:#3daee9;
      }
      .ColorScheme-ButtonText {
        color:#31363b;
      }
      .ColorScheme-ButtonBackground {
        color:#eff0f1;
      }
      .ColorScheme-ButtonHover {
        color:#93cee9;
      }
      .ColorScheme-ButtonFocus{
        color:#3daee9;
      }
      </style>
  </defs>
  <sodipodi:namedview
     id="base"
     pagecolor="#ffffff"
     bordercolor="#666666"
     borderopacity="1.0"
     inkscape:pageopacity="0.0"
     inkscape:pageshadow="2"
     inkscape:zoom="11.41875"
     inkscape:cx="-16.673057"
     inkscape:cy="3.6564722"
     inkscape:document-units="px"
     inkscape:current-layer="layer1"
     showgrid="false"
     inkscape:showpageshadow="false"
     units="px"
     inkscape:window-width="1600"
     inkscape:window-height="847"
     inkscape:window-x="0"
     inkscape:window-y="30"
     inkscape:window-maximized="1"
     inkscape:object-nodes="true"
     inkscape:snap-bbox="true"
     showguides="false">
    <inkscape:grid
       type="xygrid"
       id="grid4120" />
    <sodipodi:guide
       position="2,20.000017"
       orientation="18,0"
       id="guide4126" />
    <sodipodi:guide
       position="2,2.0000174"
       orientation="0,18"
       id="guide4128" />
    <sodipodi:guide
       position="20,2.0000174"
       orientation="-18,0"
       id="guide4130" />
    <sodipodi:guide
       position="20,20.000017"
       orientation="0,-18"
       id="guide4132" />
    <sodipodi:guide
       position="3,19.000017"
       orientation="16,0"
       id="guide4134" />
    <sodipodi:guide
       position="3,3.0000174"
       orientation="0,16"
       id="guide4136" />
    <sodipodi:guide
       position="19,3.0000174"
       orientation="-16,0"
       id="guide4138" />
    <sodipodi:guide
       position="19,19.000017"
       orientation="0,-16"
       id="guide4140" />
    <sodipodi:guide
       position="19,13.000017"
       orientation="-6,0"
       id="guide4199" />
    <sodipodi:guide
       position="19,19.000017"
       orientation="0,-6.0000172"
       id="guide4201" />
  </sodipodi:namedview>
  <metadata
     id="metadata7">
    <rdf:RDF>
      <cc:Work
         rdf:about="">
        <dc:format>image/svg+xml</dc:format>
        <dc:type
           rdf:resource="http://purl.org/dc/dcmitype/StillImage" />
        <dc:title></dc:title>
      </cc:Work>
    </rdf:RDF>
  </metadata>
  <g
     inkscape:label="Capa 1"
     inkscape:groupmode="layer"
     id="layer1"
     transform="translate(0,-1030.3622)">
    <path
       style="opacity:0.5;fill:#000000;fill-opacity:1;stroke:none"
       d="M 6.9003906 3 C 4.1389669 3 3 5.2386 3 8 L 3 14 C 3 16.7614 4.1389669 19 6.9003906 19 C 9.6618146 19 10.5 16.7614 10.5 14 L 10.5 8 C 10.5 5.2386 9.6618146 3 6.9003906 3 z M 6.9003906 4 C 9.1095296 4 9.5 5.7909 9.5 8 L 9.5 14 C 9.5 16.2091 9.1095296 18 6.9003906 18 C 4.6912516 18 4 16.2091 4 14 L 4 8 C 4 5.7909 4.6912516 4 6.9003906 4 z M 18 7 L 18 8 L 19 8 L 19 7 L 18 7 z M 12 10 L 12 19 L 13 19 L 13 13 C 13 11.8954 13.895431 11 15 11 C 16.104569 11 16 11.8954 16 13 L 17 13 C 17 11.3431 16.656854 10 15 10 C 14.261587 10.001 13.549483 10.274278 13 10.767578 L 13 10 L 12 10 z M 18 10 L 18 19 L 19 19 L 19 10 L 18 10 z "
       transform="translate(0,1030.3622)"
       id="path4163" />
  </g>
</svg>

<?xml version="1.0" encoding="UTF-8" standalone="no"?>
<!-- Created with Inkscape (http://www.inkscape.org/) -->
<svg id="svg2" xmlns:rdf="http://www.w3.org/1999/02/22-rdf-syntax-ns#" xmlns="http://www.w3.org/2000/svg" height="22" viewBox="0 0 22 22" width="22" version="1.1" xmlns:cc="http://creativecommons.org/ns#" xmlns:dc="http://purl.org/dc/elements/1.1/">
 <defs id="defs4">
  <style id="current-color-scheme" type="text/css">.ColorScheme-Text {
        color:#4d4d4d;
      }
      .ColorScheme-Background {
        color:#eff0f1;
      }
      .ColorScheme-Highlight {
        color:#3daee9;
      }
      .ColorScheme-ViewText {
        color:#31363b;
      }
      .ColorScheme-ViewBackground {
        color:#fcfcfc;
      }
      .ColorScheme-ViewHover {
        color:#93cee9;
      }
      .ColorScheme-ViewFocus{
        color:#3daee9;
      }
      .ColorScheme-ButtonText {
        color:#31363b;
      }
      .ColorScheme-ButtonBackground {
        color:#eff0f1;
      }
      .ColorScheme-ButtonHover {
        color:#93cee9;
      }
      .ColorScheme-ButtonFocus{
        color:#3daee9;
      }</style>
 </defs>
 <metadata id="metadata7">
  <rdf:RDF>
   <cc:Work rdf:about="">
    <dc:format>image/svg+xml</dc:format>
    <dc:type rdf:resource="http://purl.org/dc/dcmitype/StillImage"/>
    <dc:title/>
   </cc:Work>
  </rdf:RDF>
 </metadata>
 <g id="layer1" transform="translate(0 -1030.4)">
  <path id="path4163" opacity=".5" d="m6.9004 3c-2.7614 0-3.9004 2.2386-3.9004 5v6c0 2.761 1.139 5 3.9004 5s3.5996-2.239 3.5996-5v-6c0-2.7614-0.8382-5-3.5996-5zm0 1c2.2091 0 2.5996 1.7909 2.5996 4v6c0 2.209-0.3905 4-2.5996 4s-2.9004-1.791-2.9004-4v-6c0-2.2091 0.6913-4 2.9004-4zm11.1 3v1h1v-1h-1zm-6 3v9h1v-6c0-1.105 0.895-2 2-2s1 0.895 1 2h1c0-1.657-0.343-3-2-3-0.738 0.001-1.451 0.274-2 0.768v-0.768h-1zm6 0v9h1v-9h-1z" transform="translate(0 1030.4)"/>
 </g>
</svg>
